projects/flag-game/flags/Aruba.svg

<svg viewBox="0 0 1000 669" xmlns="http://www.w3.org/2000/svg"><g fill-rule="evenodd"><path d="m0 2.777344h1000v666.667968h-1000zm0 0" fill="#4189dd"/><path d="m0 521.300781h1000v37.03125h-1000zm0 0" fill="#f9d616"/><path d="m148.296875 262.035156-28.398437-82.78125-82.863282-28.179687 82.789063-28.394531 28.167969-82.867188 28.398437 82.789062 82.863281 28.167969-82.777344 28.398438zm0 0" fill="#fff"/><path d="m148.273438 243.523438-23.664063-68.988282-69.054687-23.480468 68.988281-23.667969 23.480469-69.054688 23.667968 68.988281 69.054688 23.484376-68.992188 23.664062zm0 0" fill="#d21034"/><path d="m0 447.222656h1000v37.03125h-1000zm0 0" fill="#f9d616"/></g></svg>

<?xml version="1.0" encoding="UTF-8"?>
<svg xmlns="http://www.w3.org/2000/svg" xmlns:xlink="http://www.w3.org/1999/xlink" viewBox="0 0 1000 669" version="1.1">
<g id="surface124">
<path style=" stroke:none;fill-rule:evenodd;fill:rgb(25.489807%,53.72467%,86.665344%);fill-opacity:1;" d="M 0 2.777344 L 1000 2.777344 L 1000 669.445312 L 0 669.445312 Z M 0 2.777344 "/>
<path style=" stroke:none;fill-rule:evenodd;fill:rgb(97.645569%,83.920288%,8.627319%);fill-opacity:1;" d="M 0 521.300781 L 1000 521.300781 L 1000 558.332031 L 0 558.332031 Z M 0 521.300781 "/>
<path style=" stroke:none;fill-rule:evenodd;fill:rgb(99.998474%,99.998474%,99.998474%);fill-opacity:1;" d="M 148.296875 262.035156 L 119.898438 179.253906 L 37.035156 151.074219 L 119.824219 122.679688 L 147.992188 39.8125 L 176.390625 122.601562 L 259.253906 150.769531 L 176.476562 179.167969 Z M 148.296875 262.035156 "/>
<path style=" stroke:none;fill-rule:evenodd;fill:rgb(82.351685%,6.274414%,20.391846%);fill-opacity:1;" d="M 148.273438 243.523438 L 124.609375 174.535156 L 55.554688 151.054688 L 124.542969 127.386719 L 148.023438 58.332031 L 171.691406 127.320312 L 240.746094 150.804688 L 171.753906 174.46875 Z M 148.273438 243.523438 "/>
<path style=" stroke:none;fill-rule:evenodd;fill:rgb(97.645569%,83.920288%,8.627319%);fill-opacity:1;" d="M 0 447.222656 L 1000 447.222656 L 1000 484.253906 L 0 484.253906 Z M 0 447.222656 "/>
</g>
</svg>
